X: 60
M:C|
L:1/8
K:Bb
uF2|B(DF)B d(FA)c|B(DF)B d(FB)d|e(Ac)e f(Ac)f|^f(Ac)f (=f=e)_ec|
|:((3fga)|vbBdg bBba|g("1"G"3"=B)"1"d "4"g("1"G"4"g)"3"f|\
"2"e"1"EGc e(Ee)c|BfdB A(fga)|
b(Bd)f b(Bb)a|g("1"G"3"=B)d g(Gg)f|ed"2"cB AFEC|B,2B2B,2:|


